X:7499
T:The £42 cheque
O:england
M:2/4
L:1/8
C:Trad
R:Polka
K:G
GG E/F/G/E/|DB, DB,|GG E/F/G/E/|DB, A,G,|GG E/F/G/E/|DB, DG/A/|BGAF|
G2 G2:|
A/|BG GA/B/|cB AG/A/|BGDG|BGd>c|BG GA/B/|cB AG/A/|BGAF|G2 G2:|


